svg/icon/theta.svg

<svg height="32" viewBox="0 0 32 32" width="32" xmlns="http://www.w3.org/2000/svg" xmlns:xlink="http://www.w3.org/1999/xlink"><defs><linearGradient id="a" x1="50%" x2="50%" y1="0%" y2="100%"><stop offset="0" stop-color="#fff" stop-opacity=".5"/><stop offset="1" stop-opacity=".5"/></linearGradient><circle id="b" cx="16" cy="15" r="15"/><filter id="c" height="111.7%" width="111.7%" x="-5.8%" y="-4.2%"><feOffset dy=".5" in="SourceAlpha" result="shadowOffsetOuter1"/><feGaussianBlur in="shadowOffsetOuter1" result="shadowBlurOuter1" stdDeviation=".5"/><feComposite in="shadowBlurOuter1" in2="SourceAlpha" operator="out" result="shadowBlurOuter1"/><feColorMatrix in="shadowBlurOuter1" values="0 0 0 0 0   0 0 0 0 0   0 0 0 0 0  0 0 0 0.199473505 0"/></filter><path id="d" d="m10.9600847 5h10.0798306l.9600847.9933219v18.0133562l-.9600847.9933219h-10.0798306l-.9600847-.9933219v-18.0133562zm.9600846 18.0133562h8.1596614v-16.0267124h-8.1596614zm7.1339721-5.169507h-2.0873552v2.262526h-1.8834872v-2.262526h-2.0873552v-1.9486917h6.0581976zm0-5.5833303v1.9486918h-6.0581976v-1.9486918h2.0873552v-2.26252598h1.8834872v2.26252598z"/><filter id="e" height="117.5%" width="129.2%" x="-14.6%" y="-6.2%"><feOffset dy=".5" in="SourceAlpha" result="shadowOffsetOuter1"/><feGaussianBlur in="shadowOffsetOuter1" result="shadowBlurOuter1" stdDeviation=".5"/><feColorMatrix in="shadowBlurOuter1" values="0 0 0 0 0   0 0 0 0 0   0 0 0 0 0  0 0 0 0.204257246 0"/></filter></defs><g fill="none" fill-rule="evenodd"><use fill="#000" filter="url(#c)" xlink:href="#b"/><use fill="#2ab8e6" xlink:href="#b"/><use fill="url(#a)" xlink:href="#b"/><circle cx="16" cy="15" r="14.5" stroke="#000" stroke-opacity=".097"/><g fill-rule="nonzero"><use fill="#000" filter="url(#e)" xlink:href="#d"/><use fill="#fff" fill-rule="evenodd" xlink:href="#d"/></g></g></svg>

<svg xmlns="http://www.w3.org/2000/svg" xmlns:xlink="http://www.w3.org/1999/xlink" width="32" height="32" viewBox="0 0 32 32">
  <defs>
    <linearGradient id="theta-c" x1="50%" x2="50%" y1="0%" y2="100%">
      <stop offset="0%" stop-color="#FFF" stop-opacity=".5"/>
      <stop offset="100%" stop-opacity=".5"/>
    </linearGradient>
    <circle id="theta-b" cx="16" cy="15" r="15"/>
    <filter id="theta-a" width="111.7%" height="111.7%" x="-5.8%" y="-4.2%" filterUnits="objectBoundingBox">
      <feOffset dy=".5" in="SourceAlpha" result="shadowOffsetOuter1"/>
      <feGaussianBlur in="shadowOffsetOuter1" result="shadowBlurOuter1" stdDeviation=".5"/>
      <feComposite in="shadowBlurOuter1" in2="SourceAlpha" operator="out" result="shadowBlurOuter1"/>
      <feColorMatrix in="shadowBlurOuter1" values="0 0 0 0 0   0 0 0 0 0   0 0 0 0 0  0 0 0 0.199473505 0"/>
    </filter>
    <path id="theta-e" d="M10.9600847,5 L21.0399153,5 L22,5.9933219 L22,24.0066781 L21.0399153,25 L10.9600847,25 L10,24.0066781 L10,5.9933219 L10.9600847,5 Z M11.9201693,23.0133562 L20.0798307,23.0133562 L20.0798307,6.9866438 L11.9201693,6.9866438 L11.9201693,23.0133562 Z M19.0541414,17.8438492 L16.9667862,17.8438492 L16.9667862,20.1063752 L15.083299,20.1063752 L15.083299,17.8438492 L12.9959438,17.8438492 L12.9959438,15.8951575 L19.0541414,15.8951575 L19.0541414,17.8438492 Z M19.0541414,12.2605189 L19.0541414,14.2092107 L12.9959438,14.2092107 L12.9959438,12.2605189 L15.083299,12.2605189 L15.083299,9.99799292 L16.9667862,9.99799292 L16.9667862,12.2605189 L19.0541414,12.2605189 Z"/>
    <filter id="theta-d" width="129.2%" height="117.5%" x="-14.6%" y="-6.2%" filterUnits="objectBoundingBox">
      <feOffset dy=".5" in="SourceAlpha" result="shadowOffsetOuter1"/>
      <feGaussianBlur in="shadowOffsetOuter1" result="shadowBlurOuter1" stdDeviation=".5"/>
      <feColorMatrix in="shadowBlurOuter1" values="0 0 0 0 0   0 0 0 0 0   0 0 0 0 0  0 0 0 0.204257246 0"/>
    </filter>
  </defs>
  <g fill="none" fill-rule="evenodd">
    <use fill="#000" filter="url(#theta-a)" xlink:href="#theta-b"/>
    <use fill="#2AB8E6" xlink:href="#theta-b"/>
    <use fill="url(#theta-c)" style="mix-blend-mode:soft-light" xlink:href="#theta-b"/>
    <circle cx="16" cy="15" r="14.5" stroke="#000" stroke-opacity=".097"/>
    <g fill-rule="nonzero">
      <use fill="#000" filter="url(#theta-d)" xlink:href="#theta-e"/>
      <use fill="#FFF" fill-rule="evenodd" xlink:href="#theta-e"/>
    </g>
  </g>
</svg>
